azure-patterns/svg-circle-location.svg

<svg xmlns="http://www.w3.org/2000/svg" viewBox="0 0 48 48">
                                
                            
    <path d="M7.9751 41.7852C11.9162 45.3052 17.0362 47.5452 22.6698 47.84V42.9389C18.3919 42.661 14.5014 40.96 11.4614 38.2989L7.9751 41.7852Z" fill="#0078D4"></path>
    <path d="M25.1958 0V5.12842C29.4653 5.41474 33.3474 7.10737 36.379 9.75162L39.9832 6.14737C36.0337 2.56842 30.88 0.294737 25.1958 0Z" fill="#50E6FF"></path>
    <path d="M6.07158 7.94946C2.52631 11.9158 0.277891 17.061 0 22.7368H5.01895C5.30526 18.4674 7.01473 14.5768 9.66739 11.5452L6.07158 7.94946Z" fill="#0078D4"></path>
    <path d="M22.6697 0C16.9939 0.294737 11.8402 2.56 7.88232 6.13052L11.4865 9.73472C14.5181 7.09052 18.4002 5.39789 22.6697 5.12V0Z" fill="#0078D4"></path>
    <path d="M36.4042 38.2821C33.3727 40.9431 29.4737 42.6442 25.1958 42.9305V47.8316C30.8295 47.5368 35.9495 45.2968 39.8905 41.7684L36.4042 38.2821Z" fill="#50E6FF"></path>
    <path d="M0.00830078 25.2631C0.319882 30.9137 2.59356 36.0421 6.15567 39.9747L9.65039 36.48C6.99777 33.4484 5.29672 29.5494 5.01883 25.2631H0.00830078Z" fill="#0078D4"></path>
    <path d="M47.84 25.2631H42.8295C42.5516 29.541 40.859 33.4316 38.2148 36.4716L41.7095 39.9663C45.2632 36.0252 47.5284 30.9052 47.84 25.2631Z" fill="#50E6FF"></path>
    <path d="M41.7936 7.96631L38.1978 11.5621C40.842 14.5937 42.543 18.4674 42.8293 22.7368H47.8483C47.5704 17.0695 45.3304 11.9242 41.7936 7.96631Z" fill="#50E6FF"></path>
    <path d="M24.5136 12.6316C20.1515 12.3621 16.3957 15.68 16.1262 20.0421C15.8567 24.4042 23.9915 35.2 23.9915 35.2C23.9915 35.2 31.6546 25.381 31.9241 21.0189C32.1936 16.6568 28.8757 12.901 24.5136 12.6316Z" fill="#50E6FF"></path>
    <path d="M28.7915 20.8C28.6315 23.4273 26.3662 25.4316 23.7388 25.2716C21.1115 25.1116 19.1073 22.8463 19.2673 20.2189C19.4273 17.5916 21.6925 15.5873 24.3199 15.7473C26.9473 15.9073 28.9599 18.1726 28.7915 20.8Z" fill="#0078D4"></path>
</svg>

<svg xmlns="http://www.w3.org/2000/svg" viewBox="0 0 48 48"><path d="M7.975 41.785A23.89 23.89 0 0 0 22.67 47.84v-4.901a18.832 18.832 0 0 1-11.209-4.64l-3.486 3.486z" fill="#0078D4"/><path d="M25.196 0v5.128a18.9 18.9 0 0 1 11.183 4.624l3.604-3.605A23.802 23.802 0 0 0 25.196 0z" fill="#50E6FF"/><path d="M6.072 7.95A23.88 23.88 0 0 0 0 22.736h5.019a18.898 18.898 0 0 1 4.648-11.192L6.072 7.95zM22.67 0A23.872 23.872 0 0 0 7.882 6.13l3.604 3.605A18.838 18.838 0 0 1 22.67 5.12V0z" fill="#0078D4"/><path d="M36.404 38.282a18.871 18.871 0 0 1-11.208 4.649v4.9a23.85 23.85 0 0 0 14.695-6.063l-3.487-3.486z" fill="#50E6FF"/><path d="M.008 25.263a23.824 23.824 0 0 0 6.148 14.712L9.65 36.48A18.856 18.856 0 0 1 5.02 25.263H.009z" fill="#0078D4"/><path d="M47.84 25.263h-5.01a18.91 18.91 0 0 1-4.615 11.209l3.494 3.494a23.873 23.873 0 0 0 6.131-14.703zM41.794 7.966l-3.596 3.596a18.884 18.884 0 0 1 4.631 11.175h5.02a23.866 23.866 0 0 0-6.055-14.77zM24.514 12.632a7.915 7.915 0 0 0-8.388 7.41c-.27 4.362 7.865 15.158 7.865 15.158s7.664-9.819 7.933-14.181a7.914 7.914 0 0 0-7.41-8.387z" fill="#50E6FF"/><path d="M28.791 20.8a4.775 4.775 0 0 1-5.052 4.472 4.774 4.774 0 0 1-4.472-5.053 4.774 4.774 0 0 1 5.053-4.472c2.627.16 4.64 2.426 4.471 5.053z" fill="#0078D4"/></svg>
